!!!OTL: SEHT WIE ER IM GLASE BLINKT
!!!ARE: Europa, Mitteleuropa, Deutschland
!!!SCT: F0535A
!!!YEM: Copyright 1995, estate of Helmut Schaffrath.
**kern
*ICvox
*Ivox
*M4/4
*k[f#]
*G:
=1
{4b
4b
8b
8a
8g
8f#
=2
4e
4e
4e
4r}
=3
{4.cc
8b
4.dd
8cc
=4
4b
4a
4g
4r}
=5
{4b
4b
8b
8a
8g
8f#
=6
4e
4e
4e
4r}
=7
{4.cc
8b
4.dd
8cc
=8
4b
4a
4g
4r}
=9
{4dd
4dd
8dd
8ee
8dd
8cc
=10
4b
4b
4b
4r}
=11
{4.dd
8dd
8ee
8dd
8cc
8b
=12
8a
8dd
8cc#
8ee
4dd
4r}
=13
{4.cc
8b
4.dd
8cc
=14
4b
4a
4g
4r}
=15
{4dd
4dd
8dd
8ee
8dd
8cc
=16
4b
4b
4b
4r}
=17
{4.dd
8dd
8ee
8dd
8cc
8b
=18
8a
8dd
8cc#
8ee
4dd
4r}
=19
{4.cc
8b
4.dd
8cc
=20
4b
4a
4g
4r}
==
!!!AGN: Studenten -, Trink - Lied, Rundgesang
!!!ONB: ESAC (Essen Associative Code) Database: FINK
!!!AMT: simple quadruple
!!!AIN: vox
!!!EED: Helmut Schaffrath
!!!EEV: 1.0
*-
